src/static/images/not-started.svg

<svg viewBox="0 0 16 16" fill="none" xmlns="http://www.w3.org/2000/svg">
<circle cx="8" cy="8" r="8" fill="#B4C3C4"/>
<path d="M10 8L10.7071 8.70711C11.0976 8.31658 11.0976 7.68342 10.7071 7.29289L10 8ZM6.29289 10.2929C5.90237 10.6834 5.90237 11.3166 6.29289 11.7071C6.68342 12.0976 7.31658 12.0976 7.70711 11.7071L6.29289 10.2929ZM7.70711 4.29289C7.31658 3.90237 6.68342 3.90237 6.29289 4.29289C5.90237 4.68342 5.90237 5.31658 6.29289 5.70711L7.70711 4.29289ZM9.29289 7.29289L6.29289 10.2929L7.70711 11.7071L10.7071 8.70711L9.29289 7.29289ZM6.29289 5.70711L9.29289 8.70711L10.7071 7.29289L7.70711 4.29289L6.29289 5.70711Z" fill="white"/>
</svg>

<svg viewBox="0 0 16 16" fill="none" xmlns="http://www.w3.org/2000/svg"><circle cx="8" cy="8" r="8" fill="#B4C3C4"/><path d="M10 8l.707.707a1 1 0 000-1.414L10 8zm-3.707 2.293a1 1 0 101.414 1.414l-1.414-1.414zm1.414-6a1 1 0 00-1.414 1.414l1.414-1.414zm1.586 3l-3 3 1.414 1.414 3-3-1.414-1.414zm-3-1.586l3 3 1.414-1.414-3-3-1.414 1.414z" fill="#fff"/></svg>
